!!!OTL: 49. Freylekhs
!!!Genre:	Freylekhs
!!!Mode:	Minor
!!!Listening/dance:	listening
!!!One_Mode:	yes
**kern
*I"P1
*clefG2
*k[b-e-]
*g:
*M2/4
*>A
8d
=1!|:
(16dLL
16g
16b-
16aJJ)
4g
=2
16gLL
16b-
16dd
16ccJJ
4b-
=3
(16b-LL
16cc)
(16cc
16b-JJ)
(16b-LL
16a)
(16a
16gJJ)
=4
24ccLL
24dd
24ccJ
8b-J
24ccLL
24dd
24ccJ
8b-J
=5
16dLL
16g
16b-
16aJJ
4g
=6
16gLL
16b-
16dd
16ccJJ
4b-
*>A1
=7
(16b-LL
16cc)
(16cc
16b-JJ)
(16b-LL
16a)
(16a
16gJJ)
=8
4g
4gg
*>A2
=9:|!
(16ddLL
16cc)
(16cc
16b-JJ)
(16b-LL
16a)
(16a
16gJJ)
=
4.g
=10!|:
*>B
8dd
=11
16ddLL
16ee-
16ff
16ee-JJ
24ddLL
24ee-
24ddJ
8ccJ
=12
16ccLL
16dd
16ee-
16ddJJ
24ccLL
24dd
24ccJ
8b-J
=13
(16b-LL
16cc)
(16cc
16b-JJ)
(16b-LL
16aJ
8gJ)
=14
24ccLL
24dd
24ccJ
8b-J
24ccLL
24dd
24ccJ
8b-J
=15
16ddLL
16ee-
16ff
16ee-JJ
24ddLL
24ee-
24ddJ
8ccJ
=16
16ccLL
16dd
16ee-
16ddJJ
24ccLL
24dd
24ccJ
8b-J
*>B1
=17
(16ddLL
16ccJ)
(16ccL
16b-JJ)
(16b-LL
16aJ)
(16aL
16gJJ)
=18
4g
8r
*>B2
=19:|!
(16b-LL
16cc)
(16cc
16b-JJ)
(16b-LL
16a)
(16a
16gJJ)
=
4.g
=20||
*>C
24dLL
24en
24f#XJJ
=21!|:
8gL
8a'
8b-'
8cc'J
=22
(16ddLL
16b-J
8gJ)
(16ddLL
16b-J
8gJ)
=23
(8ee-L
16ffL
16ee-JJ)
8ddL
8ccJ
=24
(16ddLL
16b-J
8gJ)
(16ddLL
16b-J
8gJ)
=25
8ee-L
16ffL
16ee-JJ
24ddLL
24ee-
24ddJ
8ccJ
*>C1
=26
(16ccLL
16b-
16a
16gJJ
8fL)
[8ffJ
=27
8ffL]
24ee-L
24ff
24ee-JJ
8ddL
8ccJ
=28
8ddL
8b-J
8r
16b-LL
16b-JJ
*>C2
=29:|!
16ccLL
16b-
16a
16gJJ
4f
=30
8ffL
16ffL
16ee-JJ
8ddL
8ccJ
=31
4b-
8r
8d
==
*-
